build/web/dist/spark/icons/StarOutline.svg

<svg viewBox="0 0 24 24" xmlns="http://www.w3.org/2000/svg" data-title="StarOutline" fill="currentColor" stroke="none">
  <path fill-rule="evenodd" clip-rule="evenodd" d="M12.0188 4.31386L10.004 8.53786C9.88422 8.8073 9.70031 9.04078 9.46947 9.21619C9.23776 9.39225 8.96665 9.5038 8.68195 9.54041L4.20789 10.2287L7.44358 13.4707C7.64871 13.6719 7.80279 13.9227 7.89206 14.2008C7.98191 14.4807 8.00325 14.7794 7.95419 15.07L7.95351 15.074L7.17657 19.796L11.2017 17.587C11.2103 17.5823 11.2189 17.5777 11.2276 17.5733C11.4738 17.4477 11.7445 17.3825 12.0188 17.3825C12.2931 17.3825 12.5638 17.4477 12.8101 17.5733C12.8187 17.5777 12.8274 17.5823 12.8359 17.587L16.8602 19.7955L16.0841 15.1318L16.0837 15.129C16.0343 14.8381 16.0556 14.5389 16.1456 14.2586C16.234 13.9832 16.386 13.7346 16.5881 13.5343L19.801 10.2243L15.3557 9.54041C15.071 9.5038 14.7999 9.39225 14.5682 9.21619C14.3373 9.04079 14.1534 8.8073 14.0336 8.53786L12.0188 4.31386ZM16.9326 20.2305L16.9324 20.2292ZM11.0896 2.28194C11.3671 2.09783 11.6895 2 12.0188 2C12.3481 2 12.6705 2.09783 12.948 2.28194C13.2212 2.46318 13.4396 2.7206 13.5784 3.02459L15.7388 7.55376L20.5053 8.28707C20.826 8.33208 21.1281 8.46982 21.3771 8.68466C21.629 8.90199 21.8161 9.18927 21.9167 9.51293C22.0172 9.83659 22.027 10.1833 21.9449 10.5125C21.8642 10.8359 21.6982 11.1293 21.4656 11.3598L18.0239 14.9055L18.8523 19.8834C18.9082 20.2166 18.8728 20.5594 18.7504 20.8727C18.6279 21.1861 18.4232 21.4575 18.1595 21.656C17.8958 21.8545 17.5837 21.9722 17.2588 21.9957C16.9344 22.0191 16.6101 21.9476 16.3228 21.7893L16.3216 21.7886L12.0188 19.4272L7.716 21.7886L7.71493 21.7892C7.42761 21.9475 7.1033 22.0191 6.77879 21.9957C6.45389 21.9722 6.14185 21.8545 5.87817 21.656C5.61449 21.4575 5.40976 21.1861 5.28728 20.8727C5.16504 20.56 5.12963 20.2179 5.18504 19.8853L5.18536 19.8834L6.0136 14.8497L2.53418 11.3636C2.29393 11.1254 2.12493 10.8203 2.04751 10.4848C1.96973 10.1477 1.98774 9.79449 2.09936 9.46783C2.21098 9.14118 2.41142 8.85514 2.6764 8.64437C2.93056 8.44221 3.23363 8.31761 3.55161 8.2841L8.29889 7.55376L10.4593 3.02459C10.598 2.7206 10.8164 2.46318 11.0896 2.28194Z"/>
</svg>

<svg viewBox="0 0 24 24" xmlns="http://www.w3.org/2000/svg" data-title="StarOutline" fill="currentColor" stroke="none">
  <path d="m12.02,4.31l-2.01,4.22c-.12.27-.3.5-.53.68-.23.18-.5.29-.79.32l-4.47.69,3.24,3.24c.21.2.36.45.45.73.09.28.11.58.06.87h0s-.78,4.73-.78,4.73l4.03-2.21s.02,0,.03-.01c.25-.13.52-.19.79-.19s.55.07.79.19c0,0,.02,0,.03.01l4.02,2.21-.78-4.66h0c-.05-.29-.03-.59.06-.87.09-.28.24-.52.44-.72l3.21-3.31-4.45-.68c-.28-.04-.56-.15-.79-.32-.23-.18-.41-.41-.53-.68l-2.01-4.22Zm4.91,15.92h0s0,0,0,0ZM11.09,2.28c.28-.18.6-.28.93-.28s.65.1.93.28c.27.18.49.44.63.74l2.16,4.53,4.77.73c.32.05.62.18.87.4.25.22.44.5.54.83.1.32.11.67.03,1-.08.32-.25.62-.48.85l-3.44,3.55.83,4.98c.06.33.02.68-.1.99-.12.31-.33.58-.59.78s-.58.32-.9.34c-.32.02-.65-.05-.94-.21h0s-4.3-2.36-4.3-2.36l-4.3,2.36h0c-.29.16-.61.23-.94.21-.32-.02-.64-.14-.9-.34s-.47-.47-.59-.78c-.12-.31-.16-.65-.1-.99h0s.83-5.04.83-5.04l-3.48-3.49c-.24-.24-.41-.54-.49-.88-.08-.34-.06-.69.05-1.02.11-.33.31-.61.58-.82.25-.2.56-.33.88-.36l4.75-.73,2.16-4.53c.14-.3.36-.56.63-.74Z"/>
</svg>
